src/assets/signals/trending_words.svg

<svg width="28" height="30" viewBox="0 0 28 30" fill="none" xmlns="http://www.w3.org/2000/svg">
  <path d="M2.39377 8.40967C5.39363 4.40984 15.0244 1.19989 18.858 3.82269C22.6915 6.4455 21.3995 25.2136 15.2378 20.7719C9.07618 16.3302 9.48649 25.4418 5.6565 24.2958C1.82651 23.1498 -0.606091 12.4095 2.39377 8.40967Z" fill="#E7EAF3"/>
  <path d="M11.1793 22.3071H25.2144C25.2144 23.8574 23.9576 25.1141 22.4074 25.1141H10.4775L11.1793 23.7106V22.3071Z" fill="white"/>
  <path d="M23.5055 20.4455V7.11218C23.5055 6.84918 23.2981 6.63599 23.0424 6.63599H7.96992C7.71416 6.63599 7.50684 6.84918 7.50684 7.11218V24.255C7.50684 25.5701 7.87106 26.636 9.14992 26.636H21.19C22.4689 26.636 23.5509 25.1836 23.5055 23.4614H11.4653V24.255C11.4653 24.7911 11.2329 26.0884 10.3531 26.5407M11.6746 10.7788H19.384M11.6746 14.5884H19.384M11.6746 18.3979H19.384" stroke="#505573" stroke-width="1.5" stroke-miterlimit="10" stroke-linecap="round" stroke-linejoin="round"/>
</svg>

<svg width="28" height="30" fill="none" xmlns="http://www.w3.org/2000/svg"><path d="M2.394 8.41c3-4 12.63-7.21 16.464-4.587 3.834 2.623 2.541 21.39-3.62 16.949-6.162-4.442-5.752 4.67-9.581 3.524C1.827 23.15-.606 12.41 2.394 8.41z" fill="#E7EAF3"/><path d="M11.18 22.307h14.034a2.807 2.807 0 0 1-2.807 2.807h-11.93l.702-1.403v-1.404z" fill="#fff"/><path d="M23.506 20.445V7.112a.47.47 0 0 0-.464-.476H7.97a.47.47 0 0 0-.463.476v17.143c0 1.315.364 2.381 1.643 2.381h12.04c1.279 0 2.36-1.452 2.316-3.175h-12.04v.794c0 .536-.233 1.833-1.113 2.286m1.322-15.762h7.709m-7.71 3.81h7.71m-7.71 3.809h7.71" stroke="#505573" stroke-width="1.5" stroke-miterlimit="10" stroke-linecap="round" stroke-linejoin="round"/></svg>
